svg/misc/timeslot-question.svg

<svg width="512" height="512" viewBox="0 0 512 512" version="1.1" xmlns="http://www.w3.org/2000/svg"><path fill="currentColor" d="M448,360c0,13.255 -10.745,24 -24,24c-13.255,0 -24,-10.745 -24,-24c0,-13.255 10.745,-24 24,-24c13.255,0 24,10.745 24,24Zm-176,8l-224,0c-26.51,0 -48,-21.49 -48,-48l0,-128c0,-26.51 21.49,-48 48,-48l224,0c26.51,0 48,21.49 48,48l0,128c0,26.478 -21.439,47.949 -48,48Zm112,-168c0,-22.091 17.909,-40 40,-40c22.091,0 40,17.909 40,40c0,22.091 -17.909,40 -40,40c-13.255,0 -24,10.745 -24,24l0,32c0,13.255 10.745,24 24,24c13.255,0 24,-10.745 24,-24l0,-11.313c36.936,-10.446 64,-44.406 64,-84.687c0,-48.601 -39.399,-88 -88,-88c-48.601,0 -88,39.399 -88,88c0,13.255 10.745,24 24,24c13.255,0 24,-10.745 24,-24Zm-112,120l0,-128l-224,0l0,128l224,0Z"></path></svg>

<svg width="512" height="512" viewBox="0 0 512 512" fill="none" xmlns="http://www.w3.org/2000/svg">
<path d="M384 200C384 177.909 401.909 160 424 160C446.091 160 464 177.909 464 200C464 222.091 446.091 240 424 240C410.745 240 400 250.745 400 264V296C400 309.255 410.745 320 424 320C437.255 320 448 309.255 448 296V284.687C484.936 274.241 512 240.281 512 200C512 151.399 472.601 112 424 112C375.399 112 336 151.399 336 200C336 213.255 346.745 224 360 224C373.255 224 384 213.255 384 200Z" fill="black"/>
<path d="M448 360C448 373.255 437.255 384 424 384C410.745 384 400 373.255 400 360C400 346.745 410.745 336 424 336C437.255 336 448 346.745 448 360Z" fill="black"/>
<path fill-rule="evenodd" clip-rule="evenodd" d="M0 192C0 165.49 21.4903 144 48 144H272C298.51 144 320 165.49 320 192V320C320 346.51 298.51 368 272 368H48C21.4903 368 0 346.51 0 320V192ZM48 192H272V320H48L48 192ZM48.0024 320.06C48.0024 320.06 48.0025 320.061 48.0022 320.058L48.0024 320.06Z" fill="black"/>
</svg>
